images/content/johnson-solids/elongated-triangular-orthobicupola.svg

<?xml version="1.0" encoding="UTF-8"?>
<svg xmlns="http://www.w3.org/2000/svg" xmlns:xlink="http://www.w3.org/1999/xlink" width="144pt" height="200pt" viewBox="0 0 144 200" version="1.2">
<g id="surface1">
<path style="fill-rule:nonzero;fill:rgb(58.789062%,41.796875%,61.914062%);fill-opacity:1;stroke-width:6.12;stroke-linecap:round;stroke-linejoin:round;stroke:rgb(0%,0%,0%);stroke-opacity:1;stroke-miterlimit:10;" d="M 1249.53125 1556.054688 L 1411.132812 943.75 L 894.921875 938.007812 " transform="matrix(0.1,0,0,-0.1,0,200)"/>
<path style="fill-rule:nonzero;fill:rgb(58.789062%,41.796875%,61.914062%);fill-opacity:1;stroke-width:6.12;stroke-linecap:round;stroke-linejoin:round;stroke:rgb(0%,0%,0%);stroke-opacity:1;stroke-miterlimit:10;" d="M 894.921875 938.007812 L 729.492188 1523.984375 L 1249.53125 1556.054688 " transform="matrix(0.1,0,0,-0.1,0,200)"/>
<path style="fill-rule:nonzero;fill:rgb(76.367188%,59.959412%,67.576599%);fill-opacity:1;stroke-width:6.12;stroke-linecap:round;stroke-linejoin:round;stroke:rgb(0%,0%,0%);stroke-opacity:1;stroke-miterlimit:10;" d="M 729.492188 1523.984375 L 894.921875 938.007812 L 330.898438 708.90625 " transform="matrix(0.1,0,0,-0.1,0,200)"/>
<path style=" stroke:none;fill-rule:nonzero;fill:rgb(74.609375%,62.304688%,72.459412%);fill-opacity:1;" d="M 82.289062 168.523438 L 33.089844 129.109375 L 89.492188 106.199219 "/>
<path style="fill:none;stroke-width:6.12;stroke-linecap:round;stroke-linejoin:round;stroke:rgb(0%,0%,0%);stroke-opacity:1;stroke-miterlimit:10;" d="M 822.890625 314.765625 L 330.898438 708.90625 L 894.921875 938.007812 Z M 822.890625 314.765625 " transform="matrix(0.1,0,0,-0.1,0,200)"/>
<path style="fill-rule:nonzero;fill:rgb(58.984375%,50.976562%,73.242188%);fill-opacity:1;stroke-width:6.12;stroke-linecap:round;stroke-linejoin:round;stroke:rgb(0%,0%,0%);stroke-opacity:1;stroke-miterlimit:10;" d="M 894.921875 938.007812 L 1411.132812 943.75 L 1341.796875 293.007812 " transform="matrix(0.1,0,0,-0.1,0,200)"/>
<path style="fill-rule:nonzero;fill:rgb(58.984375%,50.976562%,73.242188%);fill-opacity:1;stroke-width:6.12;stroke-linecap:round;stroke-linejoin:round;stroke:rgb(0%,0%,0%);stroke-opacity:1;stroke-miterlimit:10;" d="M 1341.796875 293.007812 L 822.890625 314.765625 L 894.921875 938.007812 " transform="matrix(0.1,0,0,-0.1,0,200)"/>
<path style="fill-rule:nonzero;fill:rgb(84.375%,87.889099%,86.71875%);fill-opacity:1;stroke-width:6.12;stroke-linecap:round;stroke-linejoin:round;stroke:rgb(0%,0%,0%);stroke-opacity:1;stroke-miterlimit:10;" d="M 229.453125 454.726562 L 330.898438 708.90625 L 822.890625 314.765625 " transform="matrix(0.1,0,0,-0.1,0,200)"/>
<path style="fill-rule:nonzero;fill:rgb(84.375%,87.889099%,86.71875%);fill-opacity:1;stroke-width:6.12;stroke-linecap:round;stroke-linejoin:round;stroke:rgb(0%,0%,0%);stroke-opacity:1;stroke-miterlimit:10;" d="M 822.890625 314.765625 L 755.46875 36.796875 L 229.453125 454.726562 " transform="matrix(0.1,0,0,-0.1,0,200)"/>
<path style=" stroke:none;fill-rule:nonzero;fill:rgb(54.492188%,69.334412%,93.554688%);fill-opacity:1;" d="M 82.289062 168.523438 L 134.179688 170.699219 L 75.546875 196.320312 "/>
<path style="fill:none;stroke-width:6.12;stroke-linecap:round;stroke-linejoin:round;stroke:rgb(0%,0%,0%);stroke-opacity:1;stroke-miterlimit:10;" d="M 822.890625 314.765625 L 1341.796875 293.007812 L 755.46875 36.796875 Z M 822.890625 314.765625 " transform="matrix(0.1,0,0,-0.1,0,200)"/>
<path style="fill-rule:nonzero;fill:rgb(76.367188%,59.959412%,67.576599%);fill-opacity:1;stroke-width:6.12;stroke-linecap:round;stroke-linejoin:round;stroke:rgb(0%,0%,0%);stroke-opacity:1;stroke-miterlimit:10;" d="M 330.898438 708.90625 L 150 1302.34375 L 729.492188 1523.984375 " transform="matrix(0.1,0,0,-0.1,0,200)"/>
<path style="fill-rule:nonzero;fill:rgb(98.4375%,88.28125%,64.256287%);fill-opacity:1;stroke-width:6.12;stroke-linecap:round;stroke-linejoin:round;stroke:rgb(0%,0%,0%);stroke-opacity:1;stroke-miterlimit:10;" d="M 150 1302.34375 L 330.898438 708.90625 L 229.453125 454.726562 " transform="matrix(0.1,0,0,-0.1,0,200)"/>
<path style=" stroke:none;fill-rule:nonzero;fill:rgb(77.734375%,56.443787%,61.131287%);fill-opacity:1;" d="M 36.265625 10.539062 L 72.949219 47.601562 L 15 69.765625 "/>
<path style="fill:none;stroke-width:6.12;stroke-linecap:round;stroke-linejoin:round;stroke:rgb(0%,0%,0%);stroke-opacity:1;stroke-miterlimit:10;" d="M 362.65625 1894.609375 L 729.492188 1523.984375 L 150 1302.34375 Z M 362.65625 1894.609375 " transform="matrix(0.1,0,0,-0.1,0,200)"/>
<path style="fill-rule:nonzero;fill:rgb(56.639099%,26.097107%,40.989685%);fill-opacity:1;stroke-width:6.12;stroke-linecap:round;stroke-linejoin:round;stroke:rgb(0%,0%,0%);stroke-opacity:1;stroke-miterlimit:10;" d="M 1249.53125 1556.054688 L 729.492188 1523.984375 L 362.65625 1894.609375 " transform="matrix(0.1,0,0,-0.1,0,200)"/>
<path style="fill-rule:nonzero;fill:rgb(98.4375%,88.28125%,64.256287%);fill-opacity:1;stroke-width:6.12;stroke-linecap:round;stroke-linejoin:round;stroke:rgb(0%,0%,0%);stroke-opacity:1;stroke-miterlimit:10;" d="M 229.453125 454.726562 L 33.75 1083.476562 L 150 1302.34375 " transform="matrix(0.1,0,0,-0.1,0,200)"/>
<path style="fill-rule:nonzero;fill:rgb(80.46875%,45.701599%,0%);fill-opacity:1;stroke-width:6.12;stroke-linecap:round;stroke-linejoin:round;stroke:rgb(0%,0%,0%);stroke-opacity:1;stroke-miterlimit:10;" d="M 150 1302.34375 L 33.75 1083.476562 L 258.359375 1711.875 " transform="matrix(0.1,0,0,-0.1,0,200)"/>
<path style="fill-rule:nonzero;fill:rgb(80.46875%,45.701599%,0%);fill-opacity:1;stroke-width:6.12;stroke-linecap:round;stroke-linejoin:round;stroke:rgb(0%,0%,0%);stroke-opacity:1;stroke-miterlimit:10;" d="M 258.359375 1711.875 L 362.65625 1894.609375 L 150 1302.34375 " transform="matrix(0.1,0,0,-0.1,0,200)"/>
<path style="fill-rule:nonzero;fill:rgb(95.701599%,88.867188%,49.804688%);fill-opacity:1;stroke-width:6.12;stroke-linecap:round;stroke-linejoin:round;stroke:rgb(0%,0%,0%);stroke-opacity:1;stroke-miterlimit:10;" d="M 1208.398438 1349.726562 L 1382.109375 699.726562 L 1411.132812 943.75 " transform="matrix(0.1,0,0,-0.1,0,200)"/>
<path style="fill-rule:nonzero;fill:rgb(95.701599%,88.867188%,49.804688%);fill-opacity:1;stroke-width:6.12;stroke-linecap:round;stroke-linejoin:round;stroke:rgb(0%,0%,0%);stroke-opacity:1;stroke-miterlimit:10;" d="M 1411.132812 943.75 L 1249.53125 1556.054688 L 1208.398438 1349.726562 " transform="matrix(0.1,0,0,-0.1,0,200)"/>
<path style=" stroke:none;fill-rule:nonzero;fill:rgb(72.068787%,52.734375%,0%);fill-opacity:1;" d="M 134.179688 170.699219 L 141.113281 105.625 L 138.210938 130.027344 "/>
<path style="fill:none;stroke-width:6.12;stroke-linecap:round;stroke-linejoin:round;stroke:rgb(0%,0%,0%);stroke-opacity:1;stroke-miterlimit:10;" d="M 1341.796875 293.007812 L 1411.132812 943.75 L 1382.109375 699.726562 Z M 1341.796875 293.007812 " transform="matrix(0.1,0,0,-0.1,0,200)"/>
<path style="fill-rule:nonzero;fill:rgb(80.076599%,49.388123%,47.093201%);fill-opacity:1;stroke-width:6.12;stroke-linecap:round;stroke-linejoin:round;stroke:rgb(0%,0%,0%);stroke-opacity:1;stroke-miterlimit:10;" d="M 755.46875 36.796875 L 1341.796875 293.007812 L 1382.109375 699.726562 " transform="matrix(0.1,0,0,-0.1,0,200)"/>
<path style="fill-rule:nonzero;fill:rgb(56.639099%,26.097107%,40.989685%);fill-opacity:1;stroke-width:6.12;stroke-linecap:round;stroke-linejoin:round;stroke:rgb(0%,0%,0%);stroke-opacity:1;stroke-miterlimit:10;" d="M 362.65625 1894.609375 L 891.171875 1945.585938 L 1249.53125 1556.054688 " transform="matrix(0.1,0,0,-0.1,0,200)"/>
<path style=" stroke:none;fill-rule:nonzero;fill:rgb(92.576599%,96.875%,76.756287%);fill-opacity:1;" d="M 89.117188 5.441406 L 120.839844 65.027344 L 124.953125 44.394531 "/>
<path style="fill:none;stroke-width:6.12;stroke-linecap:round;stroke-linejoin:round;stroke:rgb(0%,0%,0%);stroke-opacity:1;stroke-miterlimit:10;" d="M 891.171875 1945.585938 L 1208.398438 1349.726562 L 1249.53125 1556.054688 Z M 891.171875 1945.585938 " transform="matrix(0.1,0,0,-0.1,0,200)"/>
<path style=" stroke:none;fill-rule:nonzero;fill:rgb(37.792969%,69.139099%,98.046875%);fill-opacity:1;" d="M 89.117188 5.441406 L 36.265625 10.539062 L 25.835938 28.8125 "/>
<path style="fill:none;stroke-width:6.12;stroke-linecap:round;stroke-linejoin:round;stroke:rgb(0%,0%,0%);stroke-opacity:1;stroke-miterlimit:10;" d="M 891.171875 1945.585938 L 362.65625 1894.609375 L 258.359375 1711.875 Z M 891.171875 1945.585938 " transform="matrix(0.1,0,0,-0.1,0,200)"/>
<path style=" stroke:none;fill-rule:nonzero;fill:rgb(54.296875%,28.709412%,47.801208%);fill-opacity:1;" d="M 75.546875 196.320312 L 76.234375 156.210938 L 22.945312 154.527344 "/>
<path style="fill:none;stroke-width:6.12;stroke-linecap:round;stroke-linejoin:round;stroke:rgb(0%,0%,0%);stroke-opacity:1;stroke-miterlimit:10;" d="M 755.46875 36.796875 L 762.34375 437.890625 L 229.453125 454.726562 Z M 755.46875 36.796875 " transform="matrix(0.1,0,0,-0.1,0,200)"/>
<path style="fill-rule:nonzero;fill:rgb(80.076599%,49.388123%,47.093201%);fill-opacity:1;stroke-width:6.12;stroke-linecap:round;stroke-linejoin:round;stroke:rgb(0%,0%,0%);stroke-opacity:1;stroke-miterlimit:10;" d="M 1382.109375 699.726562 L 762.34375 437.890625 L 755.46875 36.796875 " transform="matrix(0.1,0,0,-0.1,0,200)"/>
<path style="fill-rule:nonzero;fill:rgb(56.25%,38.696289%,60.15625%);fill-opacity:1;stroke-width:6.12;stroke-linecap:round;stroke-linejoin:round;stroke:rgb(0%,0%,0%);stroke-opacity:1;stroke-miterlimit:10;" d="M 33.75 1083.476562 L 229.453125 454.726562 L 762.34375 437.890625 " transform="matrix(0.1,0,0,-0.1,0,200)"/>
<path style="fill-rule:nonzero;fill:rgb(56.25%,38.696289%,60.15625%);fill-opacity:1;stroke-width:6.12;stroke-linecap:round;stroke-linejoin:round;stroke:rgb(0%,0%,0%);stroke-opacity:1;stroke-miterlimit:10;" d="M 762.34375 437.890625 L 569.765625 1097.03125 L 33.75 1083.476562 " transform="matrix(0.1,0,0,-0.1,0,200)"/>
<path style=" stroke:none;fill-rule:nonzero;fill:rgb(56.443787%,44.897461%,67.96875%);fill-opacity:1;" d="M 25.835938 28.8125 L 3.375 91.652344 L 56.976562 90.296875 "/>
<path style="fill:none;stroke-width:6.12;stroke-linecap:round;stroke-linejoin:round;stroke:rgb(0%,0%,0%);stroke-opacity:1;stroke-miterlimit:10;" d="M 258.359375 1711.875 L 33.75 1083.476562 L 569.765625 1097.03125 Z M 258.359375 1711.875 " transform="matrix(0.1,0,0,-0.1,0,200)"/>
<path style="fill-rule:nonzero;fill:rgb(77.146912%,60.15625%,66.992188%);fill-opacity:1;stroke-width:6.12;stroke-linecap:round;stroke-linejoin:round;stroke:rgb(0%,0%,0%);stroke-opacity:1;stroke-miterlimit:10;" d="M 569.765625 1097.03125 L 762.34375 437.890625 L 1382.109375 699.726562 " transform="matrix(0.1,0,0,-0.1,0,200)"/>
<path style="fill-rule:nonzero;fill:rgb(77.146912%,60.15625%,66.992188%);fill-opacity:1;stroke-width:6.12;stroke-linecap:round;stroke-linejoin:round;stroke:rgb(0%,0%,0%);stroke-opacity:1;stroke-miterlimit:10;" d="M 1382.109375 699.726562 L 1208.398438 1349.726562 L 569.765625 1097.03125 " transform="matrix(0.1,0,0,-0.1,0,200)"/>
<path style="fill-rule:nonzero;fill:rgb(73.242188%,65.039062%,76.951599%);fill-opacity:1;stroke-width:6.12;stroke-linecap:round;stroke-linejoin:round;stroke:rgb(0%,0%,0%);stroke-opacity:1;stroke-miterlimit:10;" d="M 569.765625 1097.03125 L 1208.398438 1349.726562 L 891.171875 1945.585938 " transform="matrix(0.1,0,0,-0.1,0,200)"/>
<path style="fill-rule:nonzero;fill:rgb(73.242188%,65.039062%,76.951599%);fill-opacity:1;stroke-width:6.12;stroke-linecap:round;stroke-linejoin:round;stroke:rgb(0%,0%,0%);stroke-opacity:1;stroke-miterlimit:10;" d="M 891.171875 1945.585938 L 258.359375 1711.875 L 569.765625 1097.03125 " transform="matrix(0.1,0,0,-0.1,0,200)"/>
</g>
</svg>

<svg xmlns="http://www.w3.org/2000/svg" width="192" height="200pt" viewBox="0 0 144 200" version="1.2"><path style="fill-rule:nonzero;fill:#966b9e;fill-opacity:1;stroke-width:6.12;stroke-linecap:round;stroke-linejoin:round;stroke:#000;stroke-opacity:1;stroke-miterlimit:10" d="m1249.531 1556.055 161.602-612.305-516.211-5.742" transform="matrix(.1 0 0 -.1 0 200)"/><path style="fill-rule:nonzero;fill:#966b9e;fill-opacity:1;stroke-width:6.12;stroke-linecap:round;stroke-linejoin:round;stroke:#000;stroke-opacity:1;stroke-miterlimit:10" d="m894.922 938.008-165.43 585.976 520.04 32.07" transform="matrix(.1 0 0 -.1 0 200)"/><path style="fill-rule:nonzero;fill:#c399ac;fill-opacity:1;stroke-width:6.12;stroke-linecap:round;stroke-linejoin:round;stroke:#000;stroke-opacity:1;stroke-miterlimit:10" d="m729.492 1523.984 165.43-585.976-564.024-229.102" transform="matrix(.1 0 0 -.1 0 200)"/><path style="stroke:none;fill-rule:nonzero;fill:#be9fb9;fill-opacity:1" d="m82.29 168.523-49.2-39.414 56.402-22.91"/><path style="fill:none;stroke-width:6.12;stroke-linecap:round;stroke-linejoin:round;stroke:#000;stroke-opacity:1;stroke-miterlimit:10" d="m822.89 314.766-491.992 394.14 564.024 229.102Zm0 0" transform="matrix(.1 0 0 -.1 0 200)"/><path style="fill-rule:nonzero;fill:#9682bb;fill-opacity:1;stroke-width:6.12;stroke-linecap:round;stroke-linejoin:round;stroke:#000;stroke-opacity:1;stroke-miterlimit:10" d="m894.922 938.008 516.21 5.742-69.335-650.742M1341.797 293.008 822.89 314.766l72.03 623.242" transform="matrix(.1 0 0 -.1 0 200)"/><path style="fill-rule:nonzero;fill:#d7e0dd;fill-opacity:1;stroke-width:6.12;stroke-linecap:round;stroke-linejoin:round;stroke:#000;stroke-opacity:1;stroke-miterlimit:10" d="m229.453 454.727 101.445 254.18 491.993-394.141M822.89 314.766 755.47 36.796l-526.016 417.93" transform="matrix(.1 0 0 -.1 0 200)"/><path style="stroke:none;fill-rule:nonzero;fill:#8bb1ef;fill-opacity:1" d="m82.29 168.523 51.89 2.176-58.633 25.621"/><path style="fill:none;stroke-width:6.12;stroke-linecap:round;stroke-linejoin:round;stroke:#000;stroke-opacity:1;stroke-miterlimit:10" d="m822.89 314.766 518.907-21.758L755.469 36.797Zm0 0" transform="matrix(.1 0 0 -.1 0 200)"/><path style="fill-rule:nonzero;fill:#c399ac;fill-opacity:1;stroke-width:6.12;stroke-linecap:round;stroke-linejoin:round;stroke:#000;stroke-opacity:1;stroke-miterlimit:10" d="M330.898 708.906 150 1302.344l579.492 221.64" transform="matrix(.1 0 0 -.1 0 200)"/><path style="fill-rule:nonzero;fill:#fbe1a4;fill-opacity:1;stroke-width:6.12;stroke-linecap:round;stroke-linejoin:round;stroke:#000;stroke-opacity:1;stroke-miterlimit:10" d="m150 1302.344 180.898-593.438-101.445-254.18" transform="matrix(.1 0 0 -.1 0 200)"/><path style="stroke:none;fill-rule:nonzero;fill:#c6909c;fill-opacity:1" d="m36.266 10.54 36.683 37.062L15 69.766"/><path style="fill:none;stroke-width:6.12;stroke-linecap:round;stroke-linejoin:round;stroke:#000;stroke-opacity:1;stroke-miterlimit:10" d="m362.656 1894.61 366.836-370.626L150 1302.344Zm0 0" transform="matrix(.1 0 0 -.1 0 200)"/><path style="fill-rule:nonzero;fill:#904369;fill-opacity:1;stroke-width:6.12;stroke-linecap:round;stroke-linejoin:round;stroke:#000;stroke-opacity:1;stroke-miterlimit:10" d="m1249.531 1556.055-520.039-32.07-366.836 370.624" transform="matrix(.1 0 0 -.1 0 200)"/><path style="fill-rule:nonzero;fill:#fbe1a4;fill-opacity:1;stroke-width:6.12;stroke-linecap:round;stroke-linejoin:round;stroke:#000;stroke-opacity:1;stroke-miterlimit:10" d="M229.453 454.727 33.75 1083.477 150 1302.344" transform="matrix(.1 0 0 -.1 0 200)"/><path style="fill-rule:nonzero;fill:#cd7500;fill-opacity:1;stroke-width:6.12;stroke-linecap:round;stroke-linejoin:round;stroke:#000;stroke-opacity:1;stroke-miterlimit:10" d="M150 1302.344 33.75 1083.477l224.61 628.398" transform="matrix(.1 0 0 -.1 0 200)"/><path style="fill-rule:nonzero;fill:#cd7500;fill-opacity:1;stroke-width:6.12;stroke-linecap:round;stroke-linejoin:round;stroke:#000;stroke-opacity:1;stroke-miterlimit:10" d="m258.36 1711.875 104.296 182.734L150 1302.344" transform="matrix(.1 0 0 -.1 0 200)"/><path style="fill-rule:nonzero;fill:#f4e37f;fill-opacity:1;stroke-width:6.12;stroke-linecap:round;stroke-linejoin:round;stroke:#000;stroke-opacity:1;stroke-miterlimit:10" d="m1208.398 1349.727 173.711-650 29.024 244.023" transform="matrix(.1 0 0 -.1 0 200)"/><path style="fill-rule:nonzero;fill:#f4e37f;fill-opacity:1;stroke-width:6.12;stroke-linecap:round;stroke-linejoin:round;stroke:#000;stroke-opacity:1;stroke-miterlimit:10" d="m1411.133 943.75-161.602 612.305-41.133-206.328" transform="matrix(.1 0 0 -.1 0 200)"/><path style="stroke:none;fill-rule:nonzero;fill:#b88600;fill-opacity:1" d="m134.18 170.7 6.933-65.075-2.902 24.402"/><path style="fill:none;stroke-width:6.12;stroke-linecap:round;stroke-linejoin:round;stroke:#000;stroke-opacity:1;stroke-miterlimit:10" d="m1341.797 293.008 69.336 650.742-29.024-244.023Zm0 0" transform="matrix(.1 0 0 -.1 0 200)"/><path style="fill-rule:nonzero;fill:#cc7e78;fill-opacity:1;stroke-width:6.12;stroke-linecap:round;stroke-linejoin:round;stroke:#000;stroke-opacity:1;stroke-miterlimit:10" d="m755.469 36.797 586.328 256.21 40.312 406.72" transform="matrix(.1 0 0 -.1 0 200)"/><path style="fill-rule:nonzero;fill:#904369;fill-opacity:1;stroke-width:6.12;stroke-linecap:round;stroke-linejoin:round;stroke:#000;stroke-opacity:1;stroke-miterlimit:10" d="m362.656 1894.61 528.516 50.976 358.36-389.531" transform="matrix(.1 0 0 -.1 0 200)"/><path style="stroke:none;fill-rule:nonzero;fill:#ecf7c4;fill-opacity:1" d="m89.117 5.441 31.723 59.586 4.113-20.632"/><path style="fill:none;stroke-width:6.12;stroke-linecap:round;stroke-linejoin:round;stroke:#000;stroke-opacity:1;stroke-miterlimit:10" d="m891.172 1945.586 317.226-595.86 41.133 206.329Zm0 0" transform="matrix(.1 0 0 -.1 0 200)"/><path style="stroke:none;fill-rule:nonzero;fill:#60b0fa;fill-opacity:1" d="M89.117 5.441 36.266 10.54l-10.43 18.273"/><path style="fill:none;stroke-width:6.12;stroke-linecap:round;stroke-linejoin:round;stroke:#000;stroke-opacity:1;stroke-miterlimit:10" d="m891.172 1945.586-528.516-50.977-104.297-182.734Zm0 0" transform="matrix(.1 0 0 -.1 0 200)"/><path style="stroke:none;fill-rule:nonzero;fill:#8a497a;fill-opacity:1" d="m75.547 196.32.687-40.11-53.289-1.683"/><path style="fill:none;stroke-width:6.12;stroke-linecap:round;stroke-linejoin:round;stroke:#000;stroke-opacity:1;stroke-miterlimit:10" d="m755.469 36.797 6.875 401.094-532.89 16.836Zm0 0" transform="matrix(.1 0 0 -.1 0 200)"/><path style="fill-rule:nonzero;fill:#cc7e78;fill-opacity:1;stroke-width:6.12;stroke-linecap:round;stroke-linejoin:round;stroke:#000;stroke-opacity:1;stroke-miterlimit:10" d="M1382.11 699.727 762.343 437.89l-6.875-401.094" transform="matrix(.1 0 0 -.1 0 200)"/><path style="fill-rule:nonzero;fill:#8f6399;fill-opacity:1;stroke-width:6.12;stroke-linecap:round;stroke-linejoin:round;stroke:#000;stroke-opacity:1;stroke-miterlimit:10" d="m33.75 1083.477 195.703-628.75 532.89-16.836" transform="matrix(.1 0 0 -.1 0 200)"/><path style="fill-rule:nonzero;fill:#8f6399;fill-opacity:1;stroke-width:6.12;stroke-linecap:round;stroke-linejoin:round;stroke:#000;stroke-opacity:1;stroke-miterlimit:10" d="m762.344 437.89-192.578 659.141-536.016-13.554" transform="matrix(.1 0 0 -.1 0 200)"/><path style="stroke:none;fill-rule:nonzero;fill:#9072ad;fill-opacity:1" d="M25.836 28.813 3.375 91.653l53.602-1.356"/><path style="fill:none;stroke-width:6.12;stroke-linecap:round;stroke-linejoin:round;stroke:#000;stroke-opacity:1;stroke-miterlimit:10" d="M258.36 1711.875 33.75 1083.477l536.016 13.554Zm0 0" transform="matrix(.1 0 0 -.1 0 200)"/><path style="fill-rule:nonzero;fill:#c599ab;fill-opacity:1;stroke-width:6.12;stroke-linecap:round;stroke-linejoin:round;stroke:#000;stroke-opacity:1;stroke-miterlimit:10" d="m569.766 1097.031 192.578-659.14 619.765 261.836M1382.11 699.727l-173.712 650-638.632-252.696" transform="matrix(.1 0 0 -.1 0 200)"/><path style="fill-rule:nonzero;fill:#bba6c4;fill-opacity:1;stroke-width:6.12;stroke-linecap:round;stroke-linejoin:round;stroke:#000;stroke-opacity:1;stroke-miterlimit:10" d="m569.766 1097.031 638.632 252.696-317.226 595.859" transform="matrix(.1 0 0 -.1 0 200)"/><path style="fill-rule:nonzero;fill:#bba6c4;fill-opacity:1;stroke-width:6.12;stroke-linecap:round;stroke-linejoin:round;stroke:#000;stroke-opacity:1;stroke-miterlimit:10" d="m891.172 1945.586-632.813-233.711 311.407-614.844" transform="matrix(.1 0 0 -.1 0 200)"/></svg>
